X:5800
T:Soldier's Joy
A:North-West
M:C|
O:England
R:Reel
Z:Richard Robinson 
%%TUNEURL: http://www.leeds.ac.uk/music/Info/RRTuneBk/gettune/00000515.html
%%ID:00000515
K:D
FG|\
AFDF AFDF| A2d2 d2cB| AFDF AFDF| G2E2 E2FG|\
AFDF AFDF| A2d2 d2de| fafd egec| d2d2 d2::\
de|\
fdfd fagf| edcd egfe| fdfd fagf| edcB A2de|\
fdfd fagf| edcd egfe| fafd egec| d2d2 d2:|
